X: 450
T: Den Toppede Høne Fra Vendsyssel (Jig)
B: good tune book
B: tunes
M:12/8
R: slide
Q: 3/8=100
K:Amajor
V:1 
|:A2A A2A ABc dcB|A2A A2A AGA BGE|
 A2A A2A ABc d3|cBA GFG B3 A3:|
 |:a3 A3 cBc dcd|f3 B3 cBc dcd|
 efg a3 fdf a3|gfe ^def e3 e3:|
 |:a3 a3 a2e c2A|a3 a3 gab gab|
 a3 a3 a2e c2A|f2e d2G B3 A3:|
% abcbook-tune_id 63ce6af37d972fc68a1b0c2a
% abcbook-tune_composer_id 
% abcbook-link-0 https://www.youtube.com/watch?v=M8Xb5hvGR_0
% abcbook-link-title-0 Den Toppede Høne Fra Vendsyssel (Jig)
% abcbook-boost 0
% abcbook-difficulty 0
% abcbook-tags good tune book
% abcbook-tablature 
% abcbook-transpose 
% abcbook-tuning 
% abcbook-lastupdated 1675426872243
% abcbook-soundfonts 
% abcbook-repeats 1


